Origami/32x32/apps/peruse.svg

<svg width="32" height="32" version="1" xmlns="http://www.w3.org/2000/svg">
 <path d="m3.4003906 4c-0.7756 0-1.4003906 0.6192275-1.4003906 1.3886719v22.222656c0 0.769445 0.6247906 1.388672 1.4003906 1.388672h6.2988282 0.6699222 18.230468c0.7756 0 1.400391-0.619227 1.400391-1.388672v-2.777344-4.167968-15.277344c0-0.7694444-0.624791-1.3886719-1.400391-1.3886719h-11.199218-14z" style="fill-rule:evenodd;opacity:.2"/>
 <path d="m17.4 3.0000001-3.5 11.805556 16.1 4.861111v-15.277778c0-0.7694444-0.6244-1.3888889-1.4-1.3888889z" style="fill-rule:evenodd;fill:#bbc91b"/>
 <path d="m13.9 14.805556-4.2 13.194444h18.9c0.7756 0 1.4-0.619444 1.4-1.388889v-2.777778-4.166666z" style="fill-rule:evenodd;fill:#3e7952"/>
 <path d="m3.4 3.0000001c-0.7756 0-1.4 0.6194445-1.4 1.3888889v22.222222c0 0.769445 0.6244 1.388889 1.4 1.388889h6.969922l7.030078-25z" style="fill-rule:evenodd;fill:#3a76a2"/>
 <path d="M 15.736135,6.0897362 C 10.14009,12.695813 2,12.027778 2,12.027778 l 0,2.777778 c 0,0 2.698255,3.475985 10.04199,2.9887 z" style="fill:#9f3f32"/>
 <path d="m11.782906 11.035479c-0.532875 0.0028-1.325576 0.889049-0.729211 1.320417 0.653415 0.472639 0.478324 0.983986 0.151193 1.117333-0.327131 0.133361-0.824649 0.0141-0.867223-0.782278-0.04053-0.757541-0.864276-1.211506-1.640583-0.07873-0.04795 0.119959-0.083783 0.241202-0.100786 0.362479-0.153384 1.094125 0.924763 2.165028 2.027641 2.317195 1.102885 0.152174 2.404738-0.802208 2.558122-1.89634 0.133329-0.951049-0.50561-2.001243-1.399139-2.36007zm-2.833572 1.122472c-0.02905 0.04056-0.04823 0.08347-0.074347 0.124973l0.074347-0.124973z" style="fill:#4d2f2b"/>
 <path d="m15.736133 6.0897355c-3.602939 3.7520736-7.5398548 5.0486275-10.576563 5.7549365 0.3386902 0.396402 0.9145975 0.87755 1.7404297 0.87755 1.4 0 2.1-0.694444 2.1-0.694444s1.829457 0.441097 4.2-1.388889c0.81643-0.630262 1.388972-1.3969986 1.806055-2.1348743z" style="fill:#dee3e3"/>
 <path d="m13.172657 14.564128c-0.517121 0.205749-1.147571 0.477-2.072657 0.935872-1.5619289 0.774767-2.8546259 1.224966-3.7378908 1.949744 1.4429555 0.552534 2.9614428 0.681578 4.6798828 0.344509z" style="fill:#e05e4c"/>
 <path d="m22.734766 17.169651c-0.31094 0.428676-0.639884 0.995585-0.973438 1.710341-0.947688 2.03077-1.516468 4.212035-2.236719 4.136827-0.720244-0.07523-1.264923-0.774182-1.664027-1.227432-0.399106-0.453243-0.897631-1.348078-1.390431-1.611328s-0.605542-0.188157-0.870898-0.150553c-0.265356 0.03764-0.39906-0.04747-0.531836 0.301106-0.132762 0.348556 0.556945 1.122562 0.746484 1.761882 0.148345 0.50037 0.501501 1.720944 0.631641 2.415582l1.130665 3.493924h7.605825c0.373132-1.053287 1.243036-2.448492 2.341992-3.434244 0.202981-0.182073 1.555211-1.242604 1.659765-1.458063 0.148499-0.306019-0.0068-0.824776-0.410156-0.77718-0.134455 0.01587-0.309868 0.09109-0.537305 0.250922-0.411582 0.289222-1.622489 0.887547-2.147852 1.251898 0.54919-0.799734 1.637215-2.052012 1.927735-2.471245 0.304348-0.439169 0.86596-1.335582 0.958398-1.89209l-0.916016-0.336372c-0.312022 0.204091-0.677674 0.581837-1.141601 1.137967-0.909783 1.09059-2.00866 2.707742-2.311914 2.482096-0.303268-0.225638 0.947601-1.917758 1.516211-3.008355 0.201992-0.387421 0.397824-0.76326 0.560547-1.120334l-1.49707-0.550673c-0.311457 0.420947-0.579929 0.880736-0.731446 1.18137-0.379078 0.752138-1.365084 2.933993-1.70625 2.82118-0.341173-0.112819 0.227094-1.993339 0.795704-3.046333 0.234499-0.434263 0.464487-0.897328 0.634375-1.329209z" style="fill:#ffc169"/>
 <path d="m28.175604 3.989125c-1.824396 0-5.175604 0-8.089452 1.29775-1.240547 0.552507-2.432528 1.9358195-1.824396 2.539125 0.608132 0.6033125 1.835113-0.2984443 3.648785-0.9327499 3.189459-1.1154722 6.753677-1.6720764 8.089459-1.8291805v-0.7992154c-0.383194-0.141632-0.964957-0.2757292-1.824396-0.2757292z" style="fill:#6c5548"/>
 <path d="m23.462139 8.0000001c-2.133193 0-4.462139 2.9761239-4.462139 5.1434229 0 1.21918 2.737678 1.561821 4.800181 1.828497 2.116135 0.273606 4.199819-1.489702 4.199819-3.656995 0-0.158528-0.01588-0.309902-0.04056-0.457467v-0.0014c-0.0012-7e-3 -0.0029-0.01362-0.0041-0.02061-4.9e-5 -2.74e-4 -0.0013-0.0011-0.0014-0.0014-0.300688-1.7027237-2.175512-2.6551045-4.005108-2.801133-0.0018-1.463e-4 -0.0036-0.00119-0.0054-0.00133-0.160839-0.012608-0.322322-0.031543-0.481322-0.031543z" style="opacity:.2"/>
 <path d="m23.462139 6.9999998c-2.133193 0-4.462139 2.9761236-4.462139 5.1434232 0 1.21918 2.737678 1.561821 4.800181 1.828497 2.116135 0.273606 4.199819-1.489702 4.199819-3.656995 0-0.158528-0.01588-0.309902-0.04056-0.4574674v-0.00141c-0.0012-0.00704-0.0029-0.013622-0.0041-0.020608-4.9e-5 -2.737e-4 -0.0013-0.00112-0.0014-0.0014-0.300688-1.7027236-2.175512-2.6551044-4.005108-2.8011329-0.0018-1.463e-4 -0.0036-0.00119-0.0054-0.00133-0.160839-0.0126-0.322322-0.031535-0.481322-0.031535z" style="fill:#ffffff"/>
 <path d="m24.009766 7.0410156c-0.610699 0.3771335-1.008562 1.057715-1.009766 1.8242188-3.25e-4 1.1785436 0.895189 2.1347246 2 2.1347656 1.104811-4.1e-5 2.000325-0.956222 2-2.1347656-6.1e-4 -0.1551554-0.028569-0.4745662-0.060547-0.7011719-0.766422-0.6463142-1.849557-1.0263789-2.929687-1.1230469z" style="fill:#583268"/>
 <path d="m5.4302734 3.0000001c0.1355515 1.388968 0.5768249 3.1370541 1.0171878 3.8937326 0.869841 1.4946597 2.0458218 1.4054722 3.5524388 0.5425347 1.506484-0.8629444 2.652048-2.4424756 1.7822-3.9371353-0.08799-0.1511904-0.216165-0.3242059-0.35-0.499132z" style="fill:#54d883"/>
 <path d="m16.225586 3.0000001-6.7525393 25h0.2269533 0.669922 0.552344l6.752539-25h-0.274805-1.174414z" style="fill:#ffffff"/>
 <path d="m13.9 14.111111-0.362305 1.341418 16.462305 4.375542v-0.161404-1.276313l-16.1-4.279243z" style="fill:#ffffff"/>
 <path d="m3.4003906 3c-0.7756 0-1.4003906 0.6192275-1.4003906 1.3886719v1c0-0.7694444 0.6247906-1.3886719 1.4003906-1.3886719h14 11.199218c0.7756 0 1.400391 0.6192275 1.400391 1.3886719v-1c0-0.7694444-0.624791-1.3886719-1.400391-1.3886719h-11.199218-14z" style="fill-rule:evenodd;fill:#ffffff;opacity:.2"/>
 <path d="m15.662109 4-6.6992184 25h0.7363282 0.6699222 0.666015l6.697266-25h-0.332031-1.738282z" style="opacity:.2"/>
 <path d="m14.021484 14.736328-0.517578 1.931641 16.496094 4.419922v-0.421875-1.648438l-15.978516-4.28125z" style="opacity:.2"/>
 <path d="m15.662109 3l-6.6992184 25h0.7363282 0.6699222 0.666015l6.697266-25h-0.332031-1.738282z" style="fill:#ffffff"/>
 <path d="m14.021484 13.736328l-0.517578 1.931641 16.496094 4.419922v-0.421875-1.648438l-15.978516-4.28125z" style="fill:#ffffff"/>
</svg>

<svg xmlns="http://www.w3.org/2000/svg" width="32" height="32" version="1">
 <path style="opacity:0.2;fill-rule:evenodd" d="M 3.4003906,4 C 2.6247906,4 2,4.6192275 2,5.3886719 L 2,27.611328 C 2,28.380773 2.6247906,29 3.4003906,29 l 6.2988282,0 0.6699222,0 18.230468,0 C 29.375209,29 30,28.380773 30,27.611328 l 0,-2.777344 0,-4.167968 0,-15.2773441 C 30,4.6192275 29.375209,4 28.599609,4 L 17.400391,4 3.4003906,4 Z"/>
 <path style="fill:#bbc91b;fill-rule:evenodd" d="M 17.4,3.0000001 13.9,14.805556 30,19.666667 30,4.388889 C 30,3.6194446 29.3756,3.0000001 28.6,3.0000001 Z"/>
 <path style="fill:#3e7952;fill-rule:evenodd" d="M 13.9,14.805556 9.7,28 28.6,28 c 0.7756,0 1.4,-0.619444 1.4,-1.388889 l 0,-2.777778 0,-4.166666 z"/>
 <path style="fill:#3a76a2;fill-rule:evenodd" d="M 3.4,3.0000001 C 2.6244,3.0000001 2,3.6194446 2,4.388889 L 2,26.611111 C 2,27.380556 2.6244,28 3.4,28 L 10.369922,28 17.4,3.0000001 Z"/>
 <path style="fill:#9f3f32" d="M 15.736135,6.0897362 C 10.14009,12.695813 2,12.027778 2,12.027778 l 0,2.777778 c 0,0 2.698255,3.475985 10.04199,2.9887 z"/>
 <path style="fill:#4d2f2b" d="m 11.782906,11.035479 c -0.532875,0.0028 -1.325576,0.889049 -0.729211,1.320417 0.653415,0.472639 0.478324,0.983986 0.151193,1.117333 -0.327131,0.133361 -0.824649,0.0141 -0.867223,-0.782278 -0.04053,-0.757541 -0.864276,-1.211506 -1.640583,-0.07873 -0.04795,0.119959 -0.083783,0.241202 -0.100786,0.362479 -0.153384,1.094125 0.924763,2.165028 2.027641,2.317195 1.102885,0.152174 2.404738,-0.802208 2.558122,-1.89634 0.133329,-0.951049 -0.50561,-2.001243 -1.399139,-2.36007 z m -2.833572,1.122472 c -0.02905,0.04056 -0.04823,0.08347 -0.074347,0.124973 l 0.074347,-0.124973 z"/>
 <path style="fill:#dee3e3" d="M 15.736133,6.0897355 C 12.133194,9.8418091 8.1962782,11.138363 5.1595703,11.844672 5.4982605,12.241074 6.0741678,12.722222 6.9,12.722222 c 1.4,0 2.1,-0.694444 2.1,-0.694444 0,0 1.829457,0.441097 4.2,-1.388889 0.81643,-0.630262 1.388972,-1.3969986 1.806055,-2.1348743 z"/>
 <path style="fill:#e05e4c" d="M 13.172657,14.564128 C 12.655536,14.769877 12.025086,15.041128 11.1,15.5 c -1.5619289,0.774767 -2.8546259,1.224966 -3.7378908,1.949744 1.4429555,0.552534 2.9614428,0.681578 4.6798828,0.344509 z"/>
 <path style="fill:#ffc169" d="m 22.734766,17.169651 c -0.31094,0.428676 -0.639884,0.995585 -0.973438,1.710341 -0.947688,2.03077 -1.516468,4.212035 -2.236719,4.136827 -0.720244,-0.07523 -1.264923,-0.774182 -1.664027,-1.227432 -0.399106,-0.453243 -0.897631,-1.348078 -1.390431,-1.611328 -0.4928,-0.26325 -0.605542,-0.188157 -0.870898,-0.150553 -0.265356,0.03764 -0.39906,-0.04747 -0.531836,0.301106 -0.132762,0.348556 0.556945,1.122562 0.746484,1.761882 0.148345,0.50037 0.501501,1.720944 0.631641,2.415582 L 17.576207,28 l 7.605825,0 c 0.373132,-1.053287 1.243036,-2.448492 2.341992,-3.434244 0.202981,-0.182073 1.555211,-1.242604 1.659765,-1.458063 0.148499,-0.306019 -0.0068,-0.824776 -0.410156,-0.77718 -0.134455,0.01587 -0.309868,0.09109 -0.537305,0.250922 -0.411582,0.289222 -1.622489,0.887547 -2.147852,1.251898 0.54919,-0.799734 1.637215,-2.052012 1.927735,-2.471245 0.304348,-0.439169 0.86596,-1.335582 0.958398,-1.89209 l -0.916016,-0.336372 c -0.312022,0.204091 -0.677674,0.581837 -1.141601,1.137967 -0.909783,1.09059 -2.00866,2.707742 -2.311914,2.482096 -0.303268,-0.225638 0.947601,-1.917758 1.516211,-3.008355 0.201992,-0.387421 0.397824,-0.76326 0.560547,-1.120334 l -1.49707,-0.550673 c -0.311457,0.420947 -0.579929,0.880736 -0.731446,1.18137 -0.379078,0.752138 -1.365084,2.933993 -1.70625,2.82118 -0.341173,-0.112819 0.227094,-1.993339 0.795704,-3.046333 0.234499,-0.434263 0.464487,-0.897328 0.634375,-1.329209 z"/>
 <path style="fill:#6c5548" d="m 28.175604,3.989125 c -1.824396,0 -5.175604,0 -8.089452,1.29775 C 18.845605,5.839382 17.653624,7.2226945 18.261756,7.826 18.869888,8.4293125 20.096869,7.5275557 21.910541,6.8932501 25.1,5.7777779 28.664218,5.2211737 30,5.0640696 L 30,4.2648542 C 29.616806,4.1232222 29.035043,3.989125 28.175604,3.989125 Z"/>
 <path style="opacity:0.2" d="M 23.462139,8.0000001 C 21.328946,8.0000001 19,10.976124 19,13.143423 c 0,1.21918 2.737678,1.561821 4.800181,1.828497 C 25.916316,15.245526 28,13.482218 28,11.314925 c 0,-0.158528 -0.01588,-0.309902 -0.04056,-0.457467 0,0 0,-0.0014 0,-0.0014 -0.0012,-0.007 -0.0029,-0.01362 -0.0041,-0.02061 -4.9e-5,-2.74e-4 -0.0013,-0.0011 -0.0014,-0.0014 -0.300688,-1.7027237 -2.175512,-2.6551045 -4.005108,-2.801133 -0.0018,-1.463e-4 -0.0036,-0.00119 -0.0054,-0.00133 C 23.782593,8.018977 23.62111,8.000042 23.46211,8.000042 Z"/>
 <path style="fill:#ffffff" d="M 23.462139,6.9999998 C 21.328946,6.9999998 19,9.9761234 19,12.143423 c 0,1.21918 2.737678,1.561821 4.800181,1.828497 C 25.916316,14.245526 28,12.482218 28,10.314925 c 0,-0.158528 -0.01588,-0.309902 -0.04056,-0.4574674 0,0 0,-0.00141 0,-0.00141 -0.0012,-0.00704 -0.0029,-0.013622 -0.0041,-0.020608 -4.9e-5,-2.737e-4 -0.0013,-0.00112 -0.0014,-0.0014 -0.300688,-1.7027236 -2.175512,-2.6551044 -4.005108,-2.8011329 -0.0018,-1.463e-4 -0.0036,-0.00119 -0.0054,-0.00133 -0.160839,-0.0126 -0.322322,-0.031535 -0.481322,-0.031535 z"/>
 <path style="fill:#583268" d="M 24.009766 7.0410156 C 23.399067 7.4181491 23.001204 8.0987306 23 8.8652344 C 22.999675 10.043778 23.895189 10.999959 25 11 C 26.104811 10.999959 27.000325 10.043778 27 8.8652344 C 26.99939 8.710079 26.971431 8.3906682 26.939453 8.1640625 C 26.173031 7.5177483 25.089896 7.1376836 24.009766 7.0410156 z"/>
 <path style="fill:#54d883" d="M 5.4302734,3.0000001 C 5.5658249,4.3889681 6.0070983,6.1370542 6.4474612,6.8937327 7.3173022,8.3883924 8.493283,8.2992049 9.9999,7.4362674 11.506384,6.573323 12.651948,4.9937918 11.7821,3.4991321 11.69411,3.3479417 11.565935,3.1749262 11.4321,3.0000001 Z"/>
 <path style="fill:#ffffff" d="M 16.225586,3.0000001 9.4730467,28 9.7,28 l 0.669922,0 0.552344,0 6.752539,-24.9999999 -0.274805,0 -1.174414,0 z"/>
 <path style="fill:#ffffff" d="M 13.9,14.111111 13.537695,15.452529 30,19.828071 30,19.666667 30,18.390354 13.9,14.111111 Z"/>
 <path style="fill:#ffffff;fill-rule:evenodd;opacity:0.2" d="M 3.4003906 3 C 2.6247906 3 2 3.6192275 2 4.3886719 L 2 5.3886719 C 2 4.6192275 2.6247906 4 3.4003906 4 L 17.400391 4 L 28.599609 4 C 29.375209 4 30 4.6192275 30 5.3886719 L 30 4.3886719 C 30 3.6192275 29.375209 3 28.599609 3 L 17.400391 3 L 3.4003906 3 z"/>
 <path style="opacity:0.2" d="m 15.662109,4 -6.6992184,25 0.7363282,0 0.6699222,0 0.666015,0 6.697266,-25 -0.332031,0 -1.738282,0 z"/>
 <path style="opacity:0.2" d="M 14.021484,14.736328 13.503906,16.667969 30,21.087891 l 0,-0.421875 0,-1.648438 -15.978516,-4.28125 z"/>
 <path style="fill:#ffffff" d="M 15.662109 3 L 8.9628906 28 L 9.6992188 28 L 10.369141 28 L 11.035156 28 L 17.732422 3 L 17.400391 3 L 15.662109 3 z"/>
 <path style="fill:#ffffff" d="M 14.021484 13.736328 L 13.503906 15.667969 L 30 20.087891 L 30 19.666016 L 30 18.017578 L 14.021484 13.736328 z"/>
</svg>
